X:1
L:1/8
M:3/4
K:F
 B | AG F2 A2 | BA GB AG | FA BA GB | AG F2 A2 | BA GB AG | FA BA G2 | GG GG AB | c2 c2 [Ac]2 |: 
""^Vif"" A2 AG AB | cA GA FC | A2 AG AB | cAGA F2 :|
